X:1
T:Pavane
T:Pavane
T:Gabriel Fauré
T:Geoffrey Mouret
T:Geoffrey Mouret
T:Geoffrey Mouret
T:Geoffrey Mouret
T:Geoffrey Mouret
T:Geoffrey Mouret
T:Geoffrey Mouret
T:Geoffrey Mouret
T:Geoffrey Mouret
T:Geoffrey Mouret
T:Geoffrey Mouret
C:Gabriel Fauré
Z:Geoffrey Mouret
%%score 1 2 { ( 3 6 ) | ( 4 5 ) }
L:1/8
Q:1/4=80
M:4/4
K:A
V:1 treble nm="Flûte 1" snm="Fl."
V:2 treble nm="Flûte 2" snm="Fl."
V:3 treble nm="Piano" snm="Pia."
V:6 treble 
V:4 bass 
V:5 bass 
V:1
 z8 |!p!"^A" (F2- F>G A2- A>B | AGAF G2- G>A | GFGE F2- F>^E | C8) |!p! (c2- c>d e2- e>f | %6
 edec d2- d>e | dcdB c3 ^B | c6) z2 | z8 | z8 | z8 | z8 |!p! (A2-!<(! A>B c2- c>d!<)! | %14
!mf! cBcA B2- B>c |!>(! AGAF F2 ^E2)!>)! | F6 z2 |!p! (C2- C>^D ^E2 (3DEF | GFAG ^E3 ^D) | %19
 C z z2 (E2 (3^DEF | GFAG E3 ^D | C2) (3(^B,C^D E3 D |!<(! C2) (3(^B,C^D E3!<)! D | %23
!>(! G6 (3FG!>)!F) |!<(! T^E8-!<)! |!mf!!>(! E8{^D^E}!>)! |!p!"^B" (F2- F>G) (A2- A>B) | %27
 (AGAF) (G2- G>A) | (GFGE) (F2- F>^E) | C8 | z4!p! (A4- | A4 =G4- | G4 F4 | =F6) z2 | %34
!mf! (f2- f>g) (a2- a>b) | (agaf) (g2- g>a) | (gfge) (f2- f>^e) | c8 | %38
!<(! (a2- a>b c'2- c'>!<)!d' |!f! c'bc'a b2- b>c' |!>(! agaf f2 ^e2)!>)! |!p! f6 z2 | %42
"^C" z2 z!ff! (d' !>!c'/b/a/g/ ag | !>!gfe) z!mf!!>(! G2 F2!>)! |!p! G2 A2 F2 G2 |!pp! E4 D2 F2 | %46
!ff!!ff! !>!D8- | D3!f!!f! d!>(!!>(! !>!c/((B/A/G/)) ((AG))!>)!!>)! |!mf! (FEFG) (ABcd) | %49
!p! (cBAG) (A=G) (F/G/A/B/) |!ff! =C2 z =c' (!>!b/a/=g/f/) (gf) | (!>!fed) z!mf! D2 E2 | %52
!p! F2 =G2 E2 F2 |!pp! D4!<(! =c2 e2!<)! |!ff! _b8 | !>!_B2!mf! (=c4 d2 | e2 =f2 d2 e2 | %57
!>(! =c4 _B2 d2!>)! |!pp!"^D" c8) |!mf! (c2- c>^d ^e2 (3def | gfag ^e3 ^d | c3) z!pp! B4 | c4 F4 | %63
!p! (c2!<(! (3^Bc!<)!^d!>(! e3!>)! =d |!p! c2) z2 (A4 | B8- | B8) | z8 | %68
!p! (f2-!<(! f>g a2- a>!<)!b | agaf g2- g>a |!>(! gfge f2- f>^e!>)! | c8) | %72
 z!mf! (a!<(!ed cea!<)!c' |!f! f3 a Bd=gb |!>(! e3 =g Acf!>)!^g |!p! g'^e'c'g ^ecG^E) | %76
!mp!"^E" (F2- F>G) (A2- A>B) | (AGAF) (G2- G>A) | (GFGE) (F2- F>^E) | C8 | %80
!p! (f2-!<(! f>=g a2- a>b!<)! |!f!!f! a=gaf g2- g>a |!>(! f^efA A2 G2!>)! |!f!!>(! A8)!>)! | %84
!p! (f^efA A2 G2 |!f!!>(! A4) (d^dd=d!>)! |!pp! c2 ^B2 =B^Bdc) | F8- |!p! (F2- F>G A2 (3GAB | %89
!mf! (cB)(dc)!>(! A3 G!>)! |!p! F2 (3^EFG A3 G | F2) z2!pp! ^B,4 | C8- | C4 z4 | %94
!p!!p! (F2- F>G F2- F>G | F2- F>G F2- F>G | F2-) (3F(GF GF- (3FGF | %97
 GF-)!>(! (3F(GF (3GAB (3c^d^e!>)! |!pp!!<(! (f8-) | f2 g2 g2!<)! a2) |!f!!>(! c8-!>)! |!p! c8- | %102
 c2 z2!pp! c'2 z2 | f'2 z2 z4 |] %104
V:2
 z8 | z8 | z8 | z8 | z8 |!p! (A2- A>B c2- c>d | cBcA B2- B>c | BAB=G A2 ^G2 | G6) z2 | %9
!p! (F2- F>G A2- A>B | AGAF G2- G>A | GFGE F2- F>^E | C8) |!p! (c2- c>d e2- e>f | edec d2- d>e | %15
 dcdB c3 ^B | c6) z2 | z8 | z4!pp! (^E3 ^D |!p! C2-) C>^D E z z2 | z8 | z8 | %22
!<(! z2 (3(^B,C^D!<)! E3 D |!>(! E6 (3DE!>)!D) |!mp!!<(! .C.G.A.F .G.B.c.A!<)! | %25
!mf!!>(! .B.d.e.c .d.B.c.A!>)! |!p! (f2- f>g) (a2- a>b) | (agaf) (g2- g>a) | (gfge) (f2- f>^e) | %29
 c8 |!p! (A2- A>B c2- c>d | cBcA B2- B>c | BAB=G A2 ^G2 | G6) z2 | z4!mp! (f4 | B4 e4 | A4 d4 | %37
 ^E8) |!<(! (f2- f>=g a2- a>!<)!b |!f! a=gaf g2- g>a | f^efA A2 G2) |!p! A6 z2 |!ff! !>!F8- | %43
 F3!f! d!>(! !>!c/(B/A/G/) (AG)!>)! |!mf! (FEFG) (ABcd) |!p! (cBAc) (BA) (G/A/B/c/) | %46
 z2 z!ff! (d' !>!c'/b/a/g/ ag | !>!gfe) z!mf! G2 F2 |!p! G2 A2 F2 G2 |!pp! E4 D2 F2 |!ff! E8- | %51
 E3!f! =c!>(! !>!B/(A/=G/F/) (GF)!>)! |!mf! (EDEF) (=GAB=c) |!p! (BA=GF) (G=F) (E/F/G/A/) | %54
!ff! _B8 | z2 z!f! _B!>(! !>!A/(=G/=F/E/) (FE)!>)! |!mf!!mf! (D=CDE) (=F=GA_B) | %57
!>(! (A=G=FE) (FE) (D/E/F/G/)!>)! |!pp! A2!<(! E6- | E4 A4!<)! | c4!p! (^B4 | %61
!p! (c2-) c>^d e2) (3(def) | (gfag) (e3 ^d | c2) z2 (F4 | C2) (3^Bc^d (e3 d) |!<(! g6 (3(fgf)!<)! | %66
!f!!>(! T^e8!>)! |!p!!>(! T^e8{^de}!>)! | F2 z2 z!pp!!<(! (^Bcf) | e2!<)! fd (BABe) | %70
 (d2 ec) (AGAd) |!<(! (^ECDF) (EGc) z!<)! |!mf! (c'2-!<(! c'>d') (e'2- e'>!<)!f') | %73
!f! (e'd'e'c') (d'2- d'>e') |!>(! (d'c'd'b) (c'3!>)! =c') |!p! c'6 z2 | z4!p! f4 | (B4 e4) | %78
 (A4 d4) | G8 |!p! (a2-!<(! a>b c'2- c'>!<)!d' |!f! c'bc'a b2- b>c' |!>(! agaf f2 ^e2!>)! | %83
!f!!>(! f8)!>)! |!p! (agaf f2 ^e2 |!f!!>(! f8)!>)! |!p! (AGAF F2 ^E2 |!pp! F8-) | F8- | (F4 D4 | %90
 E4) z4 | z2!pp! (3(^EFG A3 G) |!<(! (3(GF^E (3FAc (3fa^e (3fga!<)! |!p! c'8) | z8 | z8 | %96
 z4!p! (=C4 | E4 _E4) | (C4!pp! (^B,4) |!<(! E4 ^D4)!<)! |!f!!>(! A8-!>)! |!p! (A4 G4 | %102
 F2) z2!pp! f2 z2 | c'2 z2 z4 |] %104
V:3
 z"^pizz." A,CA, z A,CA, | z A,CA, z CFC | z B,EB, z B,EB, | z A,CA, z A,CA, | z G,^EG, z G,EG, | %5
 z FCF z CA,C | z FA,F z B,=G,B, | z E=G,E z F^G,F | z .G,.C.D .B,.C.A,.G, | z A,CA, z CFC | %10
 z B,EB, z B,EB, | z A,CA, z A,CA, | z G,^EG, z G,EG, | z CA,C z EA,E | z EA,D z D=G,C | %15
 z CF^B, z =B,CB, |!<(! F,CFA GFED!<)! |!p! C2 z2 z4 | z4!pp! (F4 | G4 F4 | G4 F4 | G8-) | %22
 G2 z2 z4 | z8 | z8 | z8 | z A,CA, z A,CF | z B,EB z B,EB | z A,DA z A,DA | z G^eG z G,^EG, | %30
!p! ([cac']2- [cac']>[dbd'] [ec'e']2- [ec'e']>[fd'f'] | %31
 [ec'e'][dbd'][ec'e'][cac'] [dbd']2- [dbd']>[ec'e'] | [dbd'][cac'][dbd'][B=gb] [cc']3 [^B^b] | %33
 [cc']6) z2 |!mf! z A,CA, z CFC | z B,EB, z B,EB, | z A,CA, z A,CA, | z G,^EG, z G,EG, | %38
!<(! ([Afa]2- [Afa]>[B=gb] [cac']2- [cac']>!<)![dbd'] | %39
!f!!f! [cac'][B=gb][cac'][Afa] [Bgb]2- [Bgb]>[cac'] | %40
!>(! [Afa][G^eg][Afa][FAf] [FAf]2 [^EGe]2)!>)! |!p! [FAf]6 z2 | !>!D8 | z2!mf! (E4 F2 | %44
 G2 A2 F2 G2 | E4 D2 E2 |!ff! F8) | z2!mf! E4 F2 |!p! (G2 A2 F2 G2 |!pp! E4 D2 F2) |!ff! =C8- | %51
 C8- |!p! C2 =G2 E2 F2 |!pp! D4 =C2 E2 | %54
!ff! _B,3 [_B_b] ((!>![Aa]/[=G=g]/[=F=f]/[Ee]/)) (([Ff][Ee])) | ((!>![Ee][Dd][=C=c])) z z4 | %56
 z4 z[K:bass] =G,A,_B, |!>(! (A,=G,=F,E,) (F,E,) z2!>)! |[K:treble] z8 | z8 | z8 | z8 | z8 | z8 | %64
!mf! z8 | z8 | z8 | z8 | z4 (F4 | B,4 E4 | A,4 D4 | G,8) | !arpeggio![cea]4 !arpeggio![Ace]4 | %73
 !arpeggio![dfa]4 !arpeggio![=GBde]4 |!>(! !arpeggio![df=g]4 !arpeggio![Adfg]4!>)! | %75
 !arpeggio![^EGc]8 |!p! (A,G,A,B, C^B,CF | E2 FD B,A,B,E | D2 EC A,G,A,D | z4 C^DF^E | %80
!p! ([A,F])!<(!B,CD) ([=G,E]ACE)!<)! |!mf! [A,C]3 A (D=GA,C) |!>(! F,3!>)! F!p! B,(^B,C)D | %83
!>(! (^D^E)(E!>)!D)!<(! =D!<)!_E!>(!E!>)!D | z4 z!p! (^B,C)D | %85
!>(! (^D^E)(E!>)!D)!<(! =D!<)!_E!>(!E!>)!D |!pp! F^EFA, !arpeggio![A,CF]2 !arpeggio![G,EG]2 | %87
 [F,F] z z2 z4 | z8 | z8 | z8 | z8 | z8 | z8 | z!pp! A,CA, z G,^B,G, | z A,EA, z A,^DA, | %96
 z!pp!"^pizz." A,CA, z G,^B,G, | z A,EA, z A,^DA, | z!pp! F,CF, z!<(! F,^B,F,!<)! | %99
 z F,EF, z!>(! F,^DF,!>)! | z2!mp! Ee dcBA | GFED CB,A,G, | z4 [Bfc']2 z2 | [CFc]2 z2 z4 |] %104
V:4
!pp! F,2 z2 F,2 z2 | F,2 z2 D,2 z2 | E,2 z2 C,2 z2 | D,2 z2 B,,2 z2 | C,2 z2 B,,2 z2 | %5
 A,,2 z2 F,,2 z2 | B,,2 z2 E,,2 z2 | A,,2 z2 D,2 z2 | C,2 z2 z4 | F,2 z2 D,2 z2 | E,2 z2 C,2 z2 | %11
 D,2 z2 B,,2 z2 | C,2 z2 B,,2 z2 | A,,2 z2 =G,,2 z2 | F,,2 z2 E,,2 z2 | D,,2 z2 C,,2 z2 | %16
 F,,C,F,A, G,F,E,D, | C,2 z2 B,,2 z2 | A,,2 z2 [G,,,G,,]2 z2 | [C,,C,]2 z2 G,,2 z2 | %20
 A,,2 z2 B,,2 z2 | G,,2 z2 B,,2 z2 | G,,2 z2 B,,2 z2 | z E,B,E, z F,B,F, | %24
!<(! C,,.G,.A,.F, .G,.B,.C.A,!<)! |!>(! .B,.D.E.C .D.B,.C.A,!>)! |!mp! F,4 [D,F,]4 | %27
 [B,,E,]4 [C,E,]4 | [A,,D,]4 [B,,D,]4 | [C,G,]4 [G,,B,,]4 | z F,CF z CA,C | z CF,C z B,=G,B, | %32
 z E=G,E z D,^G,F, | z C,.C.D .B,.C.A,.G, | !arpeggio![F,,C,F,]4 !arpeggio![A,,D,A,]4 | %35
 !arpeggio![E,,G,,E,]4 !arpeggio![C,E,G,]4 | !arpeggio![D,F,A,]4 !arpeggio![B,,D,B,]4 | %37
 !arpeggio![C,,^E,,C,]4 !arpeggio![B,,,G,,B,,]4 | z!<(! CA,C z EA,E!<)! | z EA,E z D=G,C | %40
 z!>(! CF^B, z =B,CB,!>)! | z!p! A,!<(!B,G, A,F,G,E,!<)! |!ff! !>![D,,D,]8- | [D,,D,]8- | %44
 [D,,D,]2!p! C,4 B,,2 | D,2 C,2 F,2 E,2 |!ff! !>![D,,D,]8- |!>(! [D,,D,]8-!>)! | %48
 [D,,D,]2 (C,4 B,,2) | (D,2 C,2 F,2 D,2) | [=C,,=C,]8- | [C,,C,]8- | [C,,C,]2 (B,,4 A,,2) | %53
 (=C,2 B,,2 E,2 C,2) |!ff! _B,,8- | B,,3!f! _B,!>(! !>!A,/(=G,/=F,/E,/) (F,E,)!>)! | %56
!mf!!mf! (D,=C,D,E,) =F, z z2 | _B,,2 A,,2 D,2 (D,/E,/=F,/=G,/) |!pp!"^pizz." z CEC z CEC | %59
 z CEC z C^EC | z CFC z G,,G,G,, | z G,^EG, z B,^DB, | z ECE z A,B,A, | z B,EB, z A,B,A, | %64
 z B,EB, z A,B,A, |!<(! z!<(! B,EB, z B,FB,!<)!!<)! |!mf! z G,!>(!B,C DB,DE!>)! | %67
!pp! DA,CD CG,B,C |!pp!!pp! (A,G,A,B,) (C^B,CF) | (E2 FD) (B,A,B,E) | (D2 EC) (A,G,A,D) | %71
!<(! (^E,C,D,F,) (E,G,C^E!<)! |!mf! F/)C/A,/E,/ C,/A,/C/F/ E/C/A,/E,/ A,,/E,/C/E/ | %73
 F/D/A,/F,/ D,/F,/A,/F/ E/D/B,/=G,/ E,/G,/B,/E/ | %74
!>(! A,/=G,/F,/C,/ A,,/C,/F,/G,/ A,/G,/F,/C,/ A,,/C,/F,/^G,/!>)! |!p! !arpeggio![C,C]8 | %76
 !arpeggio![F,,C,F,]4 !arpeggio![D,,F,,D,]4 | !arpeggio![E,,C,E,]4 !arpeggio![C,,E,,D,]4 | %78
 !arpeggio![D,,D,]4 !arpeggio![B,,,F,,B,,]4 | ^E,C,E,G, [B,,,B,,]4 | [A,,,A,,]4!<(! =G,,4!<)! | %81
 F,,4 E,,4 |!>(! D,,4 C,,4!>)! |!sfz!!f! [B,,,B,,]8 |!p! D,,2 z2 C,,2 z2 |!sfz!!f! [B,,,B,,]8 | %86
!p! D,2 z2 C,2 z2 | z!pp! F,FF, z F,FF, | z F,FF, z F,FF, | z F,FF, z B,DB, | z A,EA, z B,DB, | %91
 z A,EA, z!pp! ^D,^B,D, | [C,,C,A,]8 | z2!pp! [C,,C,]2 [A,,,A,,]2 [G,,,G,,]2 | %94
 [F,,,F,,]2 z2 [^D,,^D,]2 z2 | [C,,C,]2 z2 [B,,,B,,]2 z2 | [F,,F,]2 z2 [^D,,^D,]2 z2 | %97
 [C,,C,]2 z2 [B,,,B,,]2 z2 |!pp! [A,,,A,,]2 z2!<(! [G,,,G,,]2 z2!<)! | %99
 [C,,C,]2 z2!>(! [B,,,B,,]2 z2!>)! |!f! z2!mp! E,E DCB,A, | G,F,E,D, C,B,,A,,G,, | %102
 [F,,F,]2 z2!pp! [C,,C,]2 z2 | [F,,,F,,]2 z2 z4 |] %104
V:5
 x8 | x8 | x8 | x8 | x8 | x8 | x8 | x8 | x8 | x8 | x8 | x8 | x8 | x8 | x8 | x8 | x8 | %17
 x ^E,G,E, z G,CG, | z CF,C z ^B,F,B, | z ^E,G,E, z =E,B,E, | z E,CE, z A,B,A, | %21
 z E,B,E, z A,B,A, | z E,B,E, z A,B,A, | E,,2 z2 [D,,D,]2 z2 | x8 | x8 | x8 | x8 | x8 | x8 | %30
 A,,2 z2 F,,4 | B,,4 E,,4 | A,,4 F,,4 | ^E,4 z4 | x8 | x8 | x8 | x8 | F,,2 z2 [=G,,=G,]2 z2 | %39
 [F,,F,]2 z2 [E,,E,]2 z2 | [D,,D,]2 z2 [E,,E,]2 z2 | [F,,F,]4 z2 z2 | x8 | x8 | x8 | x8 | x8 | x8 | %48
 x8 | x8 | x8 | x8 | x8 | x8 | x8 | x8 | x2 A,,4 =G,,2 | x6 _B,,2 | [A,,A,]2 z2 A,2 z2 | %59
 A,2 z2 A,2 z2 | A,2 z2 [^B,F]4 | C,2 z2 G,,2 z2 | A,,2 z2 B,,2 z2 | G,,2 z2 B,,2 z2 | %64
 G,,2 z2 B,,2 z2 | E,,2 z2 D,,2 z2 | C,,2 z2 z4 | z8 | [F,,F,]4 [D,,D,]4 | [E,,E,]4 [C,,C,]4 | %70
 [D,,D,]4 [B,,,B,,]4 | [C,,C,]4 [B,,,B,,]4 | x8 | x8 | x8 | x8 | x8 | x8 | x8 | [C,,C,]4 x4 | x8 | %81
 x8 | x8 | x8 | x8 | x8 | x8 | F,,4 E,,4 | D,,4 C,,4 | D,,4 E,,4 | C,,4 E,,4 | C,,4 [G,,,G,,]4 | %92
 z8 | x8 | x8 | x8 | x8 | x8 | x8 | x8 | [C,A,C]8 | x8 | x8 | x8 |] %104
V:6
 x8 | x8 | x8 | x8 | x8 | x8 | x8 | x8 | x8 | x8 | x8 | x8 | x8 | x8 | x8 | x8 | x8 | x8 | x8 | %19
 x8 | x8 | x8 | x8 | x8 | x8 | x8 | x8 | x8 | x8 | x8 | x8 | x8 | x8 | x8 | x8 | x8 | x8 | x8 | %38
 x8 | x8 | x8 | x8 | x8 | x8 | x8 | x8 | x8 | x8 | x8 | x8 | x8 | x8 | x8 | x8 | x8 | x8 | %56
 x5[K:bass] x3 | x8 |[K:treble] x8 | x8 | x8 | x8 | x8 | x8 | x8 | x8 | x8 | x8 | x8 | x8 | x8 | %71
 x8 | x8 | x8 | x8 | x8 | x8 | x8 | x8 | x8 | x8 | x8 | x8 | [B,A^d]8 | x8 | [B,A^d]8 | x8 | x8 | %88
 x8 | x8 | x8 | x8 | x8 | x8 | x8 | x8 | x8 | x8 | x8 | x8 | x8 | x8 | x8 | x8 |] %104

